// @title W01-02
// @license CC BY-NC-SA 4.0 https://creativecommons.org/licenses/by-nc-sa/4.0/
// @by Aalok Sud
// @date Jan 14, 2026
setcpm(138/4)
$: n("<0 1 3 5>".slow(4))
.scale("e:minor")
.s("supersaw")
.delay(0.6)
.room(.95)
.lpf(100)
.gain(0.5)
.cutoff(sine.slow(8).range(200,500))
$: note("e g b e4 b g").slow(2).hpf(700).sustain(1)
.s("gm_electric_guitar_clean")
