// @title W01-03
// @license CC BY-NC-SA 4.0 https://creativecommons.org/licenses/by-nc-sa/4.0/
// @by Aalok Sud
// @date Jan 15, 2026

// 03
$: n(irand(7).seg(16).sub(7)).scale("c:minor:pentatonic").s("supersaw").delay(0.5)._pianoroll()
$: s("[- - - mt],[hh*2 hh*2 hh*4 hh], [bd!4]").bank("simmonssds5")
